X:1
T:Slängpolska efter Sixten Söder
R:Polska
Q: 130
O:Stråsjö, Hälsingland
S:Sixten Söder
N: Efter fadern som spelade durspel
Z:LP
M:3/4
L:1/8
K:G
d|:b2 b>d g>B|d2 d>B c>A|f2 f>d e>f|1 g2 g>a b>d :|2 g2 g3d|
|:G>B B>d d>g|g>f a2 a2|1 d>f f>a a>c'|c'>b d'2 d'2:|2 d>f a>c' e>f|g2 g3d|

